X:439
T: ES HATTEN SICH SIEBN UND SIEBZIG SCHNEIDER
N: E1636
O: Europa, Mitteleuropa, Deutschland, Hessen, Darmstadt
R: Staende -, Handwerker - Lied, Schneider
M: 6/8
L: 1/16
K: G
D2 | D2G2G2G2G2A2 | G2F2E2D4
G2 | E2E2E2E2E2G2 | D2D2D2B,4
D2 | G3GG2A2G2A2 | B6
d6 | B3cB2A2G2A2 | G6z4

@@@ Tune index: 5123
